X: 23939
T: Lochaber Badger, The
R: reel
M: 4/4
K: Eminor
"Em"B2AG AG"C"E2-|~E2DE GDEG|"Hm"B2AG AG"Em"E2|EDGD E3z|
"Em"B2AG AG"C"E2-|~E2DE GDEG|"Hm"B2AG AG"Em"E2|EDGD E3z||
"Em"~E2DE GE"A"A2-|A2AG A/B/d"Hm"B2-|~B2AG AG"Em"E2|EDGD E3z|
"Em"~E2DE GE"A"A2-|A2AG A/B/d"Hm"B2-|~B2AG AG"Em"E2|EDGD E3z||

